images/Icons/IconTrustworthy.svg

<?xml version="1.0" encoding="UTF-8"?>
<svg width="82px" height="82px" viewBox="0 0 82 82" version="1.1" xmlns="http://www.w3.org/2000/svg" xmlns:xlink="http://www.w3.org/1999/xlink">
    <!-- Generator: Sketch 56.3 (81716) - https://sketch.com -->
    <title>noun_private_2309115</title>
    <desc>Created with Sketch.</desc>
    <defs>
        <path d="M13.6960938,54.2385063 L21.0488282,54.2385063 C20.4652344,56.1061092 20.15,58.0910902 20.15,60.1484318 C20.15,71.0948792 29.0554688,80 40.0015626,80 C50.9484376,80 59.8539062,71.0948791 59.8539062,60.1484318 C59.8539062,58.0910902 59.5386718,56.1061092 58.9550781,54.2385063 L66.3039062,54.2385063 C73.8562499,54.2385063 80,48.0949963 80,40.5429476 C80,35.440022 77.2,30.8284834 72.7640626,28.4543573 C73.025,27.0145698 73.1523438,25.6154056 73.1523438,24.2076481 C73.1523438,10.8597321 62.3000002,0 48.9601563,0 C38.9507813,0 30.1007813,6.07398145 26.4656251,15.2720597 C25.2976563,14.9791024 24.1179688,14.831452 22.9437501,14.831452 C15.359375,14.831452 9.13750016,20.5062303 8.33437504,27.9379712 C3.3070312,30.0707004 0,35.0080075 0,40.5429476 C0,48.0949963 6.14375008,54.2385063 13.6960938,54.2385063 Z M40.0015626,76.800125 C30.8195314,76.800125 23.35,69.3301043 23.35,60.1484318 C23.35,50.9667593 30.8195312,43.4967386 40.0015626,43.4967386 C49.1835939,43.4967386 56.6539062,50.9667593 56.6539062,60.1484318 C56.6539062,69.3301043 49.1835938,76.800125 40.0015626,76.800125 Z M29.6125,43.2647163 L29.6125,35.0658177 C29.6125,29.3371353 34.2726563,24.6763799 40.0015626,24.6763799 C42.7804688,24.6763799 45.3882813,25.7568065 47.3484376,27.7223547 C49.3109376,29.6800907 50.3914064,32.2878013 50.3914064,35.0658179 L50.3914064,43.2647163 C47.3645509,41.3952581 43.8130861,40.2968634 40.0015627,40.2968634 C36.190332,40.2968634 32.6391602,41.3951604 29.6125,43.2647163 Z M10.3640626,30.5886489 C10.9960938,30.3777197 11.4312501,29.7957111 11.4554688,29.1293309 C11.6812501,22.9061366 16.7281251,18.031327 22.9437501,18.031327 C24.2617189,18.031327 25.5960938,18.273505 26.909375,18.7516113 C27.3171875,18.8992619 27.7687501,18.8758252 28.159375,18.6852077 C28.5492187,18.4938089 28.8453125,18.152416 28.9789062,17.7391509 C31.7859374,9.04261556 39.815625,3.19987516 48.9601562,3.19987516 C60.5351562,3.19987516 69.9523437,12.6237257 69.9523437,24.2076483 C69.9523437,25.7786807 69.7664062,27.345807 69.3851562,28.9988673 C69.2093749,29.758994 69.6070312,30.5347448 70.3273437,30.8355143 C74.259375,32.4776375 76.8,36.287645 76.8,40.5429476 C76.8,46.3302215 72.0914062,51.0386313 66.3039062,51.0386313 L57.6208008,51.0386313 C56.5833984,49.0405649 55.2158203,47.2468849 53.5914062,45.7164759 L53.5914062,35.0658177 C53.5914062,31.4315846 52.1765626,28.0192179 49.6109374,25.459943 C47.05,22.8912933 43.6367187,21.4765049 40.0015624,21.4765049 C32.5085936,21.4765049 26.4124998,27.5723605 26.4124998,35.0658177 L26.4124998,45.7163783 C24.7880858,47.2467873 23.4205077,49.0404672 22.3831053,51.0386313 L13.6960936,51.0386313 C7.90859376,51.0386313 3.2,46.3302215 3.2,40.5429476 C3.2,36.0220304 6.07890624,32.0214054 10.3640626,30.5886489 Z" id="path-1"></path>
    </defs>
    <g id="Page-1" stroke="none" stroke-width="1" fill="none" fill-rule="evenodd">
        <g id="STYLE-Guide" transform="translate(-925.000000, -1253.000000)" fill-rule="nonzero">
            <g id="noun_private_2309115" transform="translate(926.000000, 1254.000000)">
                <g id="Shape">
                    <use fill-opacity="0.1" fill="#000000" xlink:href="#path-1"></use>
                    <use stroke="#FFFFFF" stroke-width="0.75" fill="#3965ED" xlink:href="#path-1"></use>
                </g>
                <path d="M39.9995972,53.6363636 C36.4905144,53.6363636 33.6363636,56.4622591 33.6363636,59.9356225 C33.6363636,62.8406573 35.643352,65.2677658 38.3497805,65.9922801 L38.3497805,69.2760679 C38.3497805,70.1778985 39.0884923,70.9090909 39.9995972,70.9090909 C40.910702,70.9090909 41.6494139,70.1778985 41.6494139,69.2760679 L41.6494139,65.9923799 C44.3560438,65.2678654 46.3636364,62.8406573 46.3636364,59.9356227 C46.3636364,56.4622591 43.50868,53.6363636 39.9995972,53.6363636 Z M39.9995972,62.9680379 C38.3103073,62.9680379 36.9359971,61.6077169 36.9359971,59.9356225 C36.9359971,58.2627307 38.3103073,56.9024097 39.9995972,56.9024097 C41.6896927,56.9024097 43.0640029,58.2627307 43.0640029,59.9356225 C43.0640029,61.6077169 41.6896925,62.9680379 39.9995972,62.9680379 Z" id="Shape" stroke="#FFFFFF" stroke-width="1.25" fill="#3965ED"></path>
            </g>
        </g>
    </g>
</svg>

<?xml version="1.0" encoding="utf-8"?>
<!-- Generator: Adobe Illustrator 22.0.0, SVG Export Plug-In . SVG Version: 6.00 Build 0)  -->
<svg version="1.1" id="Layer_1" xmlns="http://www.w3.org/2000/svg" xmlns:xlink="http://www.w3.org/1999/xlink" x="0px" y="0px"
	 viewBox="0 0 82 82" style="enable-background:new 0 0 82 82;" xml:space="preserve">
<style type="text/css">
	.st0{fill-opacity:0.1;}
	.st1{stroke:#FFFFFF;stroke-width:0.75;}
	.st2{stroke:#FFFFFF;stroke-width:1.25;}
</style>
<title>noun_private_2309115</title>
<desc>Created with Sketch.</desc>
<g id="Page-1">
	<g id="STYLE-Guide" transform="translate(-925.000000, -1253.000000)">
		<g id="noun_private_2309115" transform="translate(926.000000, 1254.000000)">
			<g id="Shape">
				<g>
					<path id="path-1" class="st0" d="M13.7,54.2H21c-0.6,1.9-0.9,3.9-0.9,5.9c0,11,9,19.9,19.9,19.9s19.9-8.9,19.9-19.9
						c0-2.1-0.3-4-0.9-5.9h7.3c7.6,0,13.7-6.1,13.7-13.7c0-5.1-2.8-9.7-7.2-12.1c0.3-1.4,0.4-2.8,0.4-4.2C73.2,10.9,62.3,0,49,0
						C39,0,30.1,6.1,26.5,15.3c-1.2-0.3-2.3-0.4-3.5-0.4c-7.6,0-13.8,5.7-14.6,13.1C3.3,30.1,0,35,0,40.5C0,48.1,6.1,54.2,13.7,54.2
						z M40,76.8c-9.2,0-16.7-7.5-16.7-16.7S30.8,43.5,40,43.5S56.7,51,56.7,60.1S49.2,76.8,40,76.8z M29.6,43.3v-8.2
						c0-5.7,4.7-10.4,10.4-10.4c2.8,0,5.4,1.1,7.3,3c2,2,3,4.6,3,7.3v8.2c-3-1.9-6.6-3-10.4-3C36.2,40.3,32.6,41.4,29.6,43.3z
						 M10.4,30.6c0.6-0.2,1.1-0.8,1.1-1.5C11.7,22.9,16.7,18,22.9,18c1.3,0,2.7,0.2,4,0.7c0.4,0.1,0.9,0.1,1.2-0.1
						c0.4-0.2,0.7-0.5,0.8-0.9C31.8,9,39.8,3.2,49,3.2c11.6,0,21,9.4,21,21c0,1.6-0.2,3.1-0.6,4.8c-0.2,0.8,0.2,1.5,0.9,1.8
						c3.9,1.6,6.5,5.5,6.5,9.7c0,5.8-4.7,10.5-10.5,10.5h-8.7c-1-2-2.4-3.8-4-5.3V35.1c0-3.6-1.4-7-4-9.6s-6-4-9.6-4
						c-7.5,0-13.6,6.1-13.6,13.6v10.7c-1.6,1.5-3,3.3-4,5.3h-8.7C7.9,51,3.2,46.3,3.2,40.5C3.2,36,6.1,32,10.4,30.6z"/>
				</g>
				<g>
					<path id="path-1_1_" class="st1" d="M13.7,54.2H21c-0.6,1.9-0.9,3.9-0.9,5.9c0,11,9,19.9,19.9,19.9s19.9-8.9,19.9-19.9
						c0-2.1-0.3-4-0.9-5.9h7.3c7.6,0,13.7-6.1,13.7-13.7c0-5.1-2.8-9.7-7.2-12.1c0.3-1.4,0.4-2.8,0.4-4.2C73.2,10.9,62.3,0,49,0
						C39,0,30.1,6.1,26.5,15.3c-1.2-0.3-2.3-0.4-3.5-0.4c-7.6,0-13.8,5.7-14.6,13.1C3.3,30.1,0,35,0,40.5C0,48.1,6.1,54.2,13.7,54.2
						z M40,76.8c-9.2,0-16.7-7.5-16.7-16.7S30.8,43.5,40,43.5S56.7,51,56.7,60.1S49.2,76.8,40,76.8z M29.6,43.3v-8.2
						c0-5.7,4.7-10.4,10.4-10.4c2.8,0,5.4,1.1,7.3,3c2,2,3,4.6,3,7.3v8.2c-3-1.9-6.6-3-10.4-3C36.2,40.3,32.6,41.4,29.6,43.3z
						 M10.4,30.6c0.6-0.2,1.1-0.8,1.1-1.5C11.7,22.9,16.7,18,22.9,18c1.3,0,2.7,0.2,4,0.7c0.4,0.1,0.9,0.1,1.2-0.1
						c0.4-0.2,0.7-0.5,0.8-0.9C31.8,9,39.8,3.2,49,3.2c11.6,0,21,9.4,21,21c0,1.6-0.2,3.1-0.6,4.8c-0.2,0.8,0.2,1.5,0.9,1.8
						c3.9,1.6,6.5,5.5,6.5,9.7c0,5.8-4.7,10.5-10.5,10.5h-8.7c-1-2-2.4-3.8-4-5.3V35.1c0-3.6-1.4-7-4-9.6s-6-4-9.6-4
						c-7.5,0-13.6,6.1-13.6,13.6v10.7c-1.6,1.5-3,3.3-4,5.3h-8.7C7.9,51,3.2,46.3,3.2,40.5C3.2,36,6.1,32,10.4,30.6z"/>
				</g>
			</g>
			<path id="Shape_1_" class="st2" d="M40,53.6c-3.5,0-6.4,2.8-6.4,6.3c0,2.9,2,5.3,4.7,6.1v3.3c0,0.9,0.7,1.6,1.6,1.6
				c0.9,0,1.6-0.7,1.6-1.6V66c2.7-0.7,4.7-3.2,4.7-6.1C46.4,56.5,43.5,53.6,40,53.6z M40,63c-1.7,0-3.1-1.4-3.1-3c0-1.7,1.4-3,3.1-3
				c1.7,0,3.1,1.4,3.1,3S41.7,63,40,63z"/>
		</g>
	</g>
</g>
</svg>
